assets/ai/ai-conversation-square.svg

<svg xmlns="http://www.w3.org/2000/svg" width="100%" height="100%" viewBox="-75.52 -43.52 599.04 599.04"><path d="M 48 32 C 21.5 32 0 53.5 0 80 L 0 432 C 0 458.5 21.5 480 48 480 L 400 480 C 426.5 480 448 458.5 448 432 L 448 80 C 448 53.5 426.5 32 400 32 L 48 32 z M 205.91797 147.73047 L 279.62305 147.73047 C 336.84766 147.73047 384 194.88476 384 252.10938 L 384 256.22852 C 384 312.53753 337.76324 359.69141 279.62305 359.69141 L 206.83203 359.69141 C 183.48439 359.69141 161.51151 352.36595 144.11523 339.08984 L 64 364.26953 L 118.93555 312.53711 C 107.94842 295.59863 101.53906 276.82938 101.53906 256.22852 L 101.53906 252.10938 C 101.53906 194.88476 148.69336 147.73047 205.91797 147.73047 z M 204.4668 187.51953 C 172.87881 187.51953 149.56445 210.87881 149.56445 242.4668 L 149.56445 269.5332 C 149.56445 301.12118 172.87882 320.73828 204.4668 320.73828 L 280.00391 320.73828 C 311.1341 320.73828 334.97656 301.12118 334.97656 269.5332 L 334.97656 242.4668 C 334.97656 210.87881 311.5919 187.51953 280.00391 187.51953 L 204.4668 187.51953 z"/></svg>

<svg xmlns="http://www.w3.org/2000/svg" width="100%" height="100%" viewBox="-75.52 -43.52 599.04 599.04"><path d="M48 32C21.5 32 0 53.5 0 80v352c0 26.5 21.5 48 48 48h352c26.5 0 48-21.5 48-48V80c0-26.5-21.5-48-48-48H48zm157.918 115.73h73.705C336.848 147.73 384 194.885 384 252.11v4.119c0 56.309-46.237 103.462-104.377 103.462h-72.791c-23.348 0-45.32-7.325-62.717-20.601L64 364.27l54.936-51.733c-10.988-16.938-17.397-35.708-17.397-56.308v-4.12c0-57.224 47.154-104.379 104.379-104.379zm-1.451 39.79c-31.588 0-54.903 23.359-54.903 54.947v27.066c0 31.588 23.315 51.205 54.903 51.205h75.537c31.13 0 54.973-19.617 54.973-51.205v-27.066c0-31.588-23.385-54.947-54.973-54.947h-75.537z"/></svg>
